X:1
T:Title
%%score ( 1 2 ) ( 3 4 )
L:1/8
Q:1/4=105
M:4/4
K:Eb
V:1 treble nm="Grand Piano, Soprano"
V:2 treble 
V:3 bass nm="Choir Pad, There Is a Habitation"
V:4 bass 
V:1
 EG [EB]2- [EB][Ec] [EB]2 | [EG]2 [DF]2 E4 | .G2 z2 z4 | [GB]2 [Ac]6 | ec [GB]2- [GB][Ac] [GB]2 | %5
 [EG]2 [DF]2 E4 | [GB]2 [Ac]2 [EA]2 [EG]2 | [DF]2 E6 | BA [Ge]4 [Ae]2- | [Ae]2 [Ge]2 [GB]4 | %10
 .G2 z2 z4 | [E=A]2 [DB]4 z2 | [AB]2 [Ge]4 [Ae]2- | [Ae]2 [Ge]2 [GB]4 | .G2 z2 z4 | [DF]2 E6- | %16
 E2 z2 z4 |] %17
V:2
 x8 | x8 | E-[EF] E2 [EF]2 [EG]2 | x8 | A2 z2 z4 | x8 | x8 | x8 | x8 | x8 | %10
 E-[EF] E2 [B,F]2 [EG]2 | x8 | x8 | x8 | E-[EF] E2 [CF][FA] [EG]2 | x8 | x8 |] %17
V:3
 G,B, [E,G,]2- [E,G,][E,A,] [E,G,]2 | [E,B,]2 [B,,A,]2 [E,G,]4 | B,A, [E,G,]2 [E,A,]2 [E,B,]2 | %3
w: By~James~Holmes~Rosecrans * * * * *|||
 [E,E]2 [A,E]6 | CE [E,E]2- [E,E][E,E] [E,E]2 | [E,B,]2 [B,,A,]2 [E,G,]4 | %6
w: |||
 [E,E]2 [A,E]2 [A,C]2 B,2 | [B,,A,]2 [E,G,]6 | B,2 [E,B,]2 [E,B,]2 [A,C]2 | [A,C]2 [E,B,]2 [E,E]4 | %10
w: ||||
 B,A, [E,G,]2 [D,B,]2 [C,G,]2 | F,2 F,2- [F,A,]2 G,2 | [F,B,]2 [E,B,]2 [E,B,]2 [A,C]2 | %13
w: |||
 [A,C]2 [E,B,]2 [E,E]4 | B,A, [E,G,]2 A,C [B,,B,]2 | [B,,A,]2 [E,G,]6- | [E,G,]2 z2 z4 |] %17
w: ||||
V:4
 E,2 z2 z4 | x8 | E,2 z2 z4 | x8 | A,2 z2 z4 | x8 | x8 | x8 | x8 | x8 | E,2 z2 z4 | z2 B,,2 z4 | %12
 x8 | x8 | E,2 z2 A,,2 z2 | x8 | x8 |] %17

